packages/core/src/svgs/tokens/branded/BTA.svg

<svg width="24" height="24" viewBox="0 0 24 24" fill="none" xmlns="http://www.w3.org/2000/svg">
<path d="M22 12C22 14.6522 20.9464 17.1957 19.0711 19.071C17.1957 20.9464 14.6522 22 12 22C9.34784 22 6.80429 20.9464 4.92892 19.071C3.05357 17.1957 2 14.6522 2 12C2 9.34785 3.05357 6.80429 4.92892 4.92892C6.80429 3.05357 9.34784 2 12 2C14.6522 2 17.1957 3.05357 19.0711 4.92892C20.9464 6.80429 22 9.34785 22 12Z" fill="#020929"/>
<path fill-rule="evenodd" clip-rule="evenodd" d="M11.9998 21.6176C14.5552 21.6176 17.0061 20.6025 18.813 18.7955C20.62 16.9885 21.6351 14.5377 21.6351 11.9823C21.6351 9.42691 20.62 6.97613 18.813 5.16916C17.0061 3.3622 14.5552 2.34705 11.9998 2.34705C9.44441 2.34705 6.99359 3.3622 5.18662 5.16916C3.37966 6.97613 2.36451 9.42691 2.36451 11.9823C2.36451 14.5377 3.37966 16.9885 5.18662 18.7955C6.99359 20.6025 9.44441 21.6176 11.9998 21.6176ZM11.9998 21.747C13.2821 21.747 14.5519 21.4945 15.7366 21.0038C16.9212 20.513 17.9977 19.7938 18.9044 18.8871C19.8113 17.9804 20.5305 16.9039 21.0212 15.7191C21.512 14.5344 21.7645 13.2647 21.7645 11.9823C21.7645 10.7001 21.512 9.4302 21.0212 8.24555C20.5305 7.06084 19.8113 5.9844 18.9044 5.07765C17.9977 4.17092 16.9212 3.45166 15.7366 2.96093C14.5519 2.47021 13.2821 2.21764 11.9998 2.21764C9.4101 2.21764 6.92635 3.24642 5.09511 5.07765C3.26387 6.90889 2.23511 9.3926 2.23511 11.9823C2.23511 14.572 3.26387 17.0558 5.09511 18.8871C6.92635 20.7183 9.4101 21.747 11.9998 21.747Z" fill="#549F4C"/>
<path fill-rule="evenodd" clip-rule="evenodd" d="M12.0001 21.1117C14.4385 21.1117 16.7771 20.1431 18.5013 18.4189C20.2255 16.6946 21.1942 14.356 21.1942 11.9177C21.1942 9.4792 20.2255 7.14064 18.5013 5.41641C16.7771 3.69218 14.4385 2.72352 12.0001 2.72352C9.5616 2.72352 7.22305 3.69218 5.49883 5.41641C3.77459 7.14064 2.80593 9.4792 2.80593 11.9177C2.80593 14.356 3.77459 16.6946 5.49883 18.4189C7.22305 20.1431 9.5616 21.1117 12.0001 21.1117ZM12.0001 21.2411C14.4735 21.2411 16.8458 20.2585 18.5949 18.5095C20.3439 16.7604 21.3265 14.3883 21.3265 11.9147C21.3265 9.44118 20.3439 7.06894 18.5949 5.31989C16.8458 3.57084 14.4735 2.58823 12.0001 2.58823C9.52729 2.58823 7.15581 3.57052 5.40732 5.31902C3.65882 7.06753 2.67651 9.43899 2.67651 11.9118C2.67651 14.3846 3.65882 16.756 5.40732 18.5045C7.15581 20.253 9.52729 21.2352 12.0001 21.2352V21.2411Z" fill="#549F4C"/>
<path d="M9.81222 15.7059C9.61279 15.3237 9.48144 14.9096 9.42393 14.4823C9.28873 13.1589 9.25339 11.8353 9.19458 10.5059L9.17692 9.72352C9.15927 8.41764 9.12399 7.08823 9.19458 5.78235C9.19458 5.77462 9.19609 5.76697 9.19905 5.75984C9.202 5.7527 9.20634 5.74621 9.2118 5.74075C9.21726 5.7353 9.22374 5.73096 9.23088 5.72799C9.23802 5.72504 9.24566 5.72352 9.25339 5.72352C9.81812 5.64117 10.371 5.59412 10.924 5.5C10.9417 5.5 10.9475 5.50587 10.9475 5.52353C10.9711 8.21764 11.0298 10.9058 11.2063 13.6C11.2181 13.8412 11.2357 14.1059 11.3005 14.3294C11.477 14.9764 11.8828 15.4293 12.5005 15.6706C12.7535 15.7706 13.0122 15.7647 13.2769 15.7471C13.6829 15.701 14.0598 15.5136 14.3416 15.2177C14.3526 15.2069 14.3674 15.2008 14.3828 15.2008C14.3982 15.2008 14.413 15.2069 14.424 15.2177L15.8181 16.5117C15.8299 16.5235 15.8299 16.5353 15.8181 16.5411C15.5476 16.8177 15.2534 17.0706 14.9358 17.2941C14.3441 17.6719 13.6482 17.8531 12.9475 17.8118C12.4276 17.8457 11.9099 17.7183 11.4652 17.447C11.2769 17.3294 11.0298 17.1999 10.8475 17.0295C10.4002 16.6786 10.0449 16.2245 9.81222 15.7059Z" fill="#F0F3FA"/>
<path d="M14.6999 14.6765C15.0529 13.8353 14.9294 12.9118 14.2881 12.253C14.127 12.0917 13.9353 11.9643 13.724 11.8784C13.5129 11.7926 13.2867 11.7499 13.0588 11.753C12.4894 11.7832 11.9206 11.8243 11.353 11.8765C11.3232 11.2001 11.2978 10.5237 11.2764 9.84705C11.2764 9.83524 11.2823 9.82358 11.3 9.82358C11.8445 9.76607 12.3895 9.71501 12.9352 9.67054C13.5176 9.62936 14.0823 9.71762 14.6117 9.96467C15.139 10.2102 15.6029 10.5733 15.968 11.0261C16.333 11.4787 16.5895 12.0091 16.7176 12.5765C16.847 13.3588 16.8941 14.1059 16.6882 14.8883C16.5364 15.3904 16.3018 15.8635 15.9941 16.2883H15.9882L14.5941 14.9706C14.5827 14.9605 14.5753 14.9466 14.5732 14.9315C14.571 14.9164 14.5743 14.9012 14.5823 14.8883C14.6235 14.8294 14.6646 14.7529 14.6999 14.6765Z" fill="#F0F3FA"/>
<path d="M8.94103 10.9117C8.96456 11.2059 8.98221 11.4941 8.98808 11.7823C8.98808 11.8882 8.98808 12.0765 8.85279 12.0765C8.20638 12.1172 7.56109 12.1741 6.9175 12.2471C6.84692 12.2471 6.81162 12.2176 6.81162 12.147C6.77044 11.4823 6.75279 10.8942 6.76457 10.3705C6.76457 10.2294 7.02339 10.2235 7.12927 10.2117L8.81161 10.0411C8.82244 10.0403 8.83332 10.0417 8.84361 10.0451C8.85392 10.0485 8.86343 10.0539 8.87164 10.061C8.87983 10.0682 8.88654 10.0768 8.89139 10.0866C8.89623 10.0963 8.89911 10.1069 8.89986 10.1176C8.92927 10.3823 8.92338 10.6824 8.94103 10.9117Z" fill="#5FD117"/>
</svg>

<svg xmlns="http://www.w3.org/2000/svg" width="24" height="24" fill="none" viewBox="0 0 24 24">
    <path fill="#020929" d="M22 12a10 10 0 1 1-20 0 10 10 0 0 1 20 0"/>
    <path fill="#549F4C" fill-rule="evenodd" d="M12 21.618a9.635 9.635 0 1 0 0-19.27 9.635 9.635 0 0 0 0 19.27m0 .129a9.765 9.765 0 1 0 0-19.53 9.765 9.765 0 0 0 0 19.53" clip-rule="evenodd"/>
    <path fill="#549F4C" fill-rule="evenodd" d="M12 21.112a9.194 9.194 0 1 0 0-18.389 9.194 9.194 0 0 0 0 18.389m0 .13A9.327 9.327 0 1 0 5.407 5.318 9.324 9.324 0 0 0 12 21.235z" clip-rule="evenodd"/>
    <path fill="#F0F3FA" d="M9.812 15.706a3.7 3.7 0 0 1-.388-1.224c-.135-1.323-.17-2.647-.23-3.976l-.017-.782c-.018-1.306-.053-2.636.018-3.942a.06.06 0 0 1 .058-.058c.565-.083 1.118-.13 1.671-.224q.025-.002.024.024c.023 2.694.082 5.382.258 8.076.012.241.03.506.095.73.176.646.582 1.1 1.2 1.34.253.1.511.095.776.077a1.74 1.74 0 0 0 1.065-.53.06.06 0 0 1 .082 0l1.394 1.295q.018.018 0 .03-.406.416-.882.752a3.33 3.33 0 0 1-1.989.518 2.53 2.53 0 0 1-1.482-.365c-.188-.118-.435-.247-.617-.418a3.5 3.5 0 0 1-1.036-1.323"/>
    <path fill="#F0F3FA" d="M14.7 14.677c.353-.842.23-1.765-.412-2.424a1.7 1.7 0 0 0-1.23-.5q-.853.045-1.705.123-.045-1.014-.077-2.029c0-.012.006-.023.024-.023q.817-.087 1.635-.153a3.35 3.35 0 0 1 1.677.294 3.8 3.8 0 0 1 2.106 2.611c.129.783.176 1.53-.03 2.312a4.7 4.7 0 0 1-.694 1.4h-.006l-1.394-1.317a.064.064 0 0 1-.012-.083 1.4 1.4 0 0 0 .118-.211"/>
    <path fill="#5FD117" d="M8.941 10.912q.037.44.047.87c0 .106 0 .294-.135.294a39 39 0 0 0-1.935.171c-.071 0-.106-.03-.106-.1a21 21 0 0 1-.047-1.777c0-.14.258-.146.364-.158l1.683-.17a.083.083 0 0 1 .088.076c.03.264.023.564.041.794"/>
</svg>
